web-magabank/image/home/icon-controle.svg

<svg width="17" height="17" viewBox="0 0 17 17" fill="none" xmlns="http://www.w3.org/2000/svg">
<path fill-rule="evenodd" clip-rule="evenodd" d="M8.14388 3.60864H4.64497C4.19262 2.59482 3.43054 1.75617 3.28121 1.59183C3.26513 1.57413 3.25615 1.56426 3.25543 1.56282C3.11488 1.43164 3.0774 1.23487 3.15236 1.05683C3.22732 0.878799 3.39599 0.766357 3.58339 0.766357C4.4267 0.766357 4.88584 1.0662 5.25128 1.30983C5.57923 1.53471 5.83223 1.70337 6.39444 1.70337C6.95665 1.70337 7.20964 1.53471 7.5376 1.30983C7.90303 1.0662 8.36217 0.766357 9.20549 0.766357C9.39289 0.766357 9.56155 0.878799 9.63648 1.05683C9.71144 1.23487 9.67396 1.43164 9.53341 1.56282C9.53269 1.56426 9.52369 1.57417 9.50755 1.59193L9.50754 1.59195L9.50753 1.59195C9.35795 1.75659 8.59611 2.59507 8.14388 3.60864ZM9.70523 16.2896V15.3526C9.70523 15.0938 9.915 14.8841 10.1737 14.8841H15.8271C16.0858 14.8841 16.2956 15.0938 16.2956 15.3526V16.2896C16.2956 16.5483 16.0858 16.7581 15.8271 16.7581H10.1737C9.915 16.7581 9.70523 16.5483 9.70523 16.2896ZM15.8271 13.9471C16.0858 13.9471 16.2956 13.7373 16.2956 13.4785V12.5415C16.2956 12.2828 16.0858 12.073 15.8271 12.073H10.1737C9.915 12.073 9.70523 12.2828 9.70523 12.5415V13.4785C9.70523 13.7373 9.915 13.9471 10.1737 13.9471H15.8271ZM7.82807 5.48267C7.978 6.68205 8.72761 7.44416 9.64588 8.3437L9.6476 8.34538C10.4142 9.09766 11.2542 9.92191 11.8207 11.136H10.1425C9.36759 11.136 8.73698 11.7666 8.73698 12.5415V16.2896C8.73698 16.4545 8.77071 16.611 8.82318 16.7581H2.64637C1.3814 16.7581 0.322573 15.7461 0.303833 14.5093C0.303833 11.1266 1.81243 9.64615 3.14299 8.3437C4.06127 7.44416 4.81088 6.68205 4.9608 5.48267H4.52041C4.25804 5.48267 4.0519 5.27653 4.0519 5.01416C4.0519 4.7518 4.25804 4.54566 4.52041 4.54566H8.26847C8.53084 4.54566 8.73698 4.7518 8.73698 5.01416C8.73698 5.27653 8.53084 5.48267 8.26847 5.48267H7.82807ZM7.79996 12.5415C7.79996 11.7665 7.16948 11.136 6.39444 11.136C6.13595 11.136 5.92593 10.926 5.92593 10.6675C5.92593 10.409 6.13595 10.199 6.39444 10.199C6.65293 10.199 6.86295 10.409 6.86295 10.6675C6.86295 10.9265 7.07249 11.136 7.33145 11.136C7.59041 11.136 7.79996 10.9265 7.79996 10.6675C7.79996 10.0575 7.4071 9.5423 6.86295 9.34827V8.79346C6.86295 8.5345 6.6534 8.32495 6.39444 8.32495C6.13548 8.32495 5.92593 8.5345 5.92593 8.79346V9.34827C5.38177 9.54233 4.98891 10.0575 4.98891 10.6675C4.98891 11.4425 5.6194 12.073 6.39444 12.073C6.65293 12.073 6.86295 12.283 6.86295 12.5415C6.86295 12.8 6.65293 13.01 6.39444 13.01C6.13595 13.01 5.92593 12.8 5.92593 12.5415C5.92593 12.2826 5.71638 12.073 5.45742 12.073C5.19846 12.073 4.98891 12.2826 4.98891 12.5415C4.98891 13.1515 5.38177 13.6667 5.92593 13.8608V14.4156C5.92593 14.6745 6.13548 14.8841 6.39444 14.8841C6.6534 14.8841 6.86295 14.6745 6.86295 14.4156V13.8608C7.4071 13.6667 7.79996 13.1515 7.79996 12.5415Z" fill="white"/>
</svg>

<svg width="17" height="17" fill="none" xmlns="http://www.w3.org/2000/svg"><path fill-rule="evenodd" clip-rule="evenodd" d="M8.144 3.609H4.645c-.452-1.014-1.214-1.853-1.364-2.017l-.026-.03a.444.444 0 01-.103-.505.467.467 0 01.431-.29c.844 0 1.303.3 1.668.543.328.225.581.393 1.143.393.563 0 .816-.168 1.144-.393.365-.244.824-.544 1.667-.544.188 0 .357.113.431.29a.444.444 0 01-.103.507l-.025.029c-.15.165-.912 1.003-1.364 2.017zm1.561 12.68v-.936c0-.26.21-.469.469-.469h5.653c.259 0 .469.21.469.469v.937c0 .258-.21.468-.469.468h-5.653a.469.469 0 01-.469-.468zm6.122-2.342c.259 0 .469-.21.469-.468v-.938a.469.469 0 00-.469-.468h-5.653a.469.469 0 00-.469.468v.938c0 .258.21.468.469.468h5.653zM7.828 5.483c.15 1.2.9 1.961 1.818 2.86l.002.002c.766.753 1.606 1.577 2.173 2.791h-1.678c-.775 0-1.406.63-1.406 1.405v3.749c0 .165.034.321.086.468H2.646c-1.265 0-2.323-1.012-2.342-2.249 0-3.382 1.508-4.863 2.839-6.165.918-.9 1.668-1.662 1.818-2.861h-.44a.464.464 0 01-.47-.469c0-.262.207-.468.47-.468h3.747c.263 0 .469.206.469.468a.464.464 0 01-.469.469h-.44zM7.8 12.54c0-.774-.63-1.405-1.406-1.405a.469.469 0 11.469-.468.468.468 0 10.937 0c0-.61-.393-1.126-.937-1.32v-.555a.468.468 0 10-.937 0v.555c-.544.194-.937.71-.937 1.32 0 .775.63 1.405 1.405 1.405a.469.469 0 11-.468.468.468.468 0 10-.937 0c0 .61.393 1.126.937 1.32v.555a.468.468 0 10.937 0v-.555c.544-.194.937-.71.937-1.32z" fill="#fff"/></svg>
